ui/StatusQ/src/assets/img/icons/ledger.svg

<svg fill="none" height="24" viewBox="0 0 24 24" width="24" xmlns="http://www.w3.org/2000/svg"><g fill="#000"><path d="m12 11.5c.8284 0 1.5-.6716 1.5-1.5 0-.82843-.6716-1.5-1.5-1.5s-1.5.67157-1.5 1.5c0 .8284.6716 1.5 1.5 1.5z"/><path clip-rule="evenodd" d="m7 20v-16c0-1.10457.89543-2 2-2h6c1.1046 0 2 .89543 2 2v16c0 1.1046-.8954 2-2 2h-6c-1.10457 0-2-.8954-2-2zm2-16.5c-.27614 0-.5.22386-.5.5v6c0 1.933 1.567 3.5 3.5 3.5s3.5-1.567 3.5-3.5v-6c0-.27614-.2239-.5-.5-.5zm3 11.5c-.9354 0-1.8109-.2569-2.55965-.704-.3804-.2271-.94035.022-.94035.4651v5.2389c0 .2761.22386.5.5.5h6c.2761 0 .5-.2239.5-.5v-5.2389c0-.4431-.5599-.6922-.9404-.4651-.7487.4471-1.6242.704-2.5596.704z" fill-rule="evenodd"/></g></svg>

<svg width="24" height="24" viewBox="0 0 24 24" fill="none" xmlns="http://www.w3.org/2000/svg">
<path d="M12 11.5C12.8284 11.5 13.5 10.8284 13.5 10C13.5 9.17157 12.8284 8.5 12 8.5C11.1716 8.5 10.5 9.17157 10.5 10C10.5 10.8284 11.1716 11.5 12 11.5Z" fill="black"/>
<path fill-rule="evenodd" clip-rule="evenodd" d="M7 20V4C7 2.89543 7.89543 2 9 2H15C16.1046 2 17 2.89543 17 4V20C17 21.1046 16.1046 22 15 22H9C7.89543 22 7 21.1046 7 20ZM9 3.5C8.72386 3.5 8.5 3.72386 8.5 4V10C8.5 11.933 10.067 13.5 12 13.5C13.933 13.5 15.5 11.933 15.5 10V4C15.5 3.72386 15.2761 3.5 15 3.5H9ZM12 15C11.0646 15 10.1891 14.7431 9.44035 14.296C9.05995 14.0689 8.5 14.318 8.5 14.7611V20C8.5 20.2761 8.72386 20.5 9 20.5H15C15.2761 20.5 15.5 20.2761 15.5 20V14.7611C15.5 14.318 14.9401 14.0689 14.5596 14.296C13.8109 14.7431 12.9354 15 12 15Z" fill="black"/>
</svg>
